T: Health To The Ladies
M: 6/8
L: 1/8
K: Gmaj
dBG AGE | GED DEG | AcB AGA | BAA A2 g |dBG AGE | GED DEG | AcB AGA | BGG G2 :|Bdd cee | Bdd dBG | Bcd dge | dBG A2 G |B2 d c2 e | B2 d dBG | AcB A2 A | BGG G2 :|
